icon-themes/sifr_svg/cmd/sc_zoomnext.svg

<svg viewBox="0 0 16 16" xmlns="http://www.w3.org/2000/svg"><path d="m3 1c-1.108 0-2 .892-2 2v10c0 1.108.892 2 2 2h10c1.108 0 2-.892 2-2v-10c0-1.108-.892-2-2-2zm2 2h.4140625.5859375c.30945 0 .55232.0903.75.28125l4.25 3.8046875v1.7832031l-4.25 3.8496094c-.19768.19095-.44055.28125-.75.28125h-.5859375-.4140625v-1c0 .25689.12983-.52846.3125-.71875l3.6875-3.28125-3.6875-3.28125c-.18267-.19029-.3125-.46186-.3125-.71875z" fill="#555753"/></svg>

<svg xmlns="http://www.w3.org/2000/svg" viewBox="0 0 16 16">
  <path
     style="fill:#555753"
     d="M 3,1 C 1.892,1 1,1.892 1,3 v 10 c 0,1.108 0.892,2 2,2 h 10 c 1.108,0 2,-0.892 2,-2 V 3 C 15,1.892 14.108,1 13,1 Z M 5,3 H 5.4140625 6 C 6.30945,3 6.55232,3.0903 6.75,3.28125 L 11,7.0859375 V 8.8691406 L 6.75,12.71875 C 6.55232,12.9097 6.30945,13 6,13 H 5.4140625 5 v -1 c 0,0.25689 0.12983,-0.52846 0.3125,-0.71875 L 9,8 5.3125,4.71875 C 5.12983,4.52846 5,4.25689 5,4 Z"
     />
</svg>
